icons/svg/account-card-details.svg

﻿<?xml version="1.0" encoding="utf-8"?>
<!DOCTYPE svg PUBLIC "-//W3C//DTD SVG 1.1//EN" "http://www.w3.org/Graphics/SVG/1.1/DTD/svg11.dtd">
<svg xmlns="http://www.w3.org/2000/svg" xmlns:xlink="http://www.w3.org/1999/xlink" version="1.1" baseProfile="full" width="24" height="24" viewBox="0 0 24.00 24.00" enable-background="new 0 0 24.00 24.00" xml:space="preserve">
	<path fill="#000000" fill-opacity="1" stroke-width="1.33333" stroke-linejoin="miter" d="M 2,3L 22,3C 23.0472,3 24,3.9528 24,5L 24,19C 24,20.0472 23.0472,21 22,21L 2,21C 0.952801,21 1.27157e-006,20.0472 1.27157e-006,19L 1.27157e-006,5C 1.27157e-006,3.9528 0.952801,3 2,3 Z M 14,6L 14,7L 22,7L 22,6L 14,6 Z M 14,8L 14,9L 21.5,9L 22,9L 22,8L 14,8 Z M 14,10L 14,11L 21,11L 21,10L 14,10 Z M 8,13.9062C 6,13.9062 2,15 2,17L 2,18L 14,18L 14,17C 14,15 10,13.9062 8,13.9062 Z M 8,6C 6.34315,6 5,7.34315 5,9C 5,10.6569 6.34314,12 8,12C 9.65685,12 11,10.6569 11,9C 11,7.34315 9.65685,6 8,6 Z "/>
</svg>

<svg xmlns="http://www.w3.org/2000/svg" version="1.1" baseProfile="full" width="24" height="24" viewBox="0 0 24.00 24.00" xml:space="preserve"><path fill="#000" fill-opacity="1" stroke-width="1.333" stroke-linejoin="miter" d="M2 3h20c1.047 0 2 .953 2 2v14c0 1.047-.953 2-2 2H2c-1.047 0-2-.953-2-2V5c0-1.047.953-2 2-2zm12 3v1h8V6h-8zm0 2v1h8V8h-8zm0 2v1h7v-1h-7zm-6 3.906C6 13.906 2 15 2 17v1h12v-1c0-2-4-3.094-6-3.094zM8 6C6.343 6 5 7.343 5 9s1.343 3 3 3 3-1.343 3-3-1.343-3-3-3z"/></svg>
